X: 2
T: Salmon Tails Up The Water
R: polka
M: 2/4
L: 1/8
K: Gmaj
|: B/A/ |G>E DE | G2- GA | Bd AB/A/ | GE cE |
G>E DD/E/ | G2- GA | B/c/d AB | G2- G :|
G/A/ |Bd- dB | ce ed/c/ | Bd AB/A/ | GE D2 |
B/c/d dB | ce- e>f | g/f/e f/g/f/d/ | e2- ed/c/ |
Bd B/c/d | ce c/d/e | d>B AF | G/A/G/F/ ED |
GG/E/ DE | G>F GA | Bd A/G/F | G2- G |]


Tune 2903	Setting 2903

